!!!!SEGMENT: pl-wnifc--13878--001-004_komorowski-ignacy-marceli--nowe-spiewy-dla-dzieci-stanislaw-jachowicz-do-bociana.krn
!!!cenid: 18xx:4751
!!!COM: Komorowski, Ignacy Marceli
!!!COM-rismID: pe30023354
!!!CDT: 1824-1858
!!!CNT: Polish
!!!GTL: Nowe śpiewy dla dzieci (Stanisław Jachowicz)
!!!OTL: Do bociana
!!!OMV: 004
!!!PDT: 1856
!!!AGN: Secular; Song; Children
!!!YEC: Copyright 2022 Narodowy Instytut Fryderyka Chopina (https://polishscores.org)
!!!YEM: License CC-BY-4.0 (https://creativecommons.org/licenses/by/4.0)
!!!SMS-siglum: PL-Wnifc
!!!SMS-shelfmark: 13878
!!!SMS-variant:
!!!SMS-altvar:
!!!SMS-shelfwork: 001-004 G
!!!NIFC-rismSourceID: 1001203553
!!!NIFC-rismChildID: 1001203553
!!!NIFC-islandoraID: nifc:211143
!!!URL-pdf-islandora: https://repozytorium.nifc.pl/islandora/object/nifc%3A211143/datastream/PDF/view
!!!URL-scan: https://polish.musicsources.pl/pl/lokalizacje/galeria/druki-muzyczne/16798/39 @EN{Scan on Polish Music Sources Website} @PL{Skany w portalu Dziedzictwo Muzyki Polskiej w otwartym dostępie}
!!!IIIF:
!!!ONB-nifc:
!!!AIN: 1 canto 1 piano
!!!key: G
**kern	**kern	**dynam	**kern	**text	**text
*part2	*part2	*part2	*part1	*part1	*part1
*staff3	*staff2	*staff2/3	*staff1	*staff1	*staff1
*IGacmp	*IGacmp	*	*	*	*
*ICklav	*ICklav	*	*ICvox	*	*
*Ipiano	*Ipiano	*	*Icanto	*	*
*I"PIANO	*I"FORTE	*	*I"GŁOS	*	*
*I'	*I'	*	*I'	*	*
*clefF4	*clefG2	*	*clefG2	*	*
*k[f#]	*k[f#]	*	*k[f#]	*	*
*G:	*G:	*	*G:	*	*
*M3/4	*M3/4	*	*M3/4	*	*
*>[A,B,B,C]	*>[A,B,B,C]	*>[A,B,B,C]	*>[A,B,B,C]	*>[A,B,B,C]	*>[A,B,B,C]
=1	=1	=1	=1	=1	=1
*>A	*>A	*>A	*>A	*>A	*>A
!!LO:TX:a:t=Allegretto
4GG/	4.b\	.	2.r	.	.
4B 4G 4D\	.	.	.	.	.
.	(8qcc/	.	.	.	.
.	8b\L)	.	.	.	.
4B 4G 4D\	8a\	.	.	.	.
.	8g\J	.	.	.	.
=2	=2	=2	=2	=2	=2
4GG/	8.b\L	.	2.r	.	.
.	16ee\Jk	.	.	.	.
4B 4G 4D\	4cc#X\	.	.	.	.
4B 4G 4D\	4dd\	.	.	.	.
=3	=3	=3	=3	=3	=3
*	*^	*	*	*	*
*	*Xtuplet	*tuplet	*	*	*	*
!	!	!	!LO:DY:a:rj	!	!	!
4DD/	12ddd/L	12dd\L	p	2.r	.	.
.	12ddd/	12ee\	.	.	.	.
.	12ddd/J	12ff#\J	.	.	.	.
4A 4F# 4D\	12ddd/L	12gg\L	.	.	.	.
.	12ddd/	12aa\	.	.	.	.
.	12ddd/J	12bb\J	.	.	.	.
4d 4A 4F# 4D\	4ddd/	4ccc\	.	.	.	.
=4	=4	=4	=4	=4	=4	=4
*	*Xtuplet	*tuplet	*	*	*	*
4GG/	12ddd/L	12bb\L	.	2.r	.	.
.	12ddd/	12aa\	.	.	.	.
.	12ddd/J	12gg\J	.	.	.	.
4B 4G 4D\	12ddd/L	12ff#\L	.	.	.	.
.	12ddd/	12gg\	.	.	.	.
.	12ddd/J	12ee\J	.	.	.	.
4B 4G 4D\	4ddd/	4dd\	.	.	.	.
*	*v	*v	*	*	*	*
=5	=5	=5	=5	=5	=5
4GG/	4.b/	.	2.r	.	.
4B 4G 4D\	.	.	.	.	.
.	(8qcc/	.	.	.	.
.	8b/L)	.	.	.	.
4B 4G 4D\	8a/	.	.	.	.
.	8g/J	.	.	.	.
!!LO:LB:g=original
=6	=6	=6	=6	=6	=6
4GG/	8.b\L	.	2.r	.	.
.	16ee\Jk	.	.	.	.
4B 4G 4D\	4cc#X\	.	.	.	.
4B 4G 4D\	4dd\	.	.	.	.
=7	=7	=7	=7	=7	=7
*	*^	*	*	*	*
*	*Xtuplet	*Xtuplet	*	*	*	*
4DD/	12ddd/L	12dd\L	p	2.r	.	.
.	12ddd/	12ee\	.	.	.	.
.	12ddd/J	12ff#\J	.	.	.	.
4A 4F# 4D\	12ddd/L	12gg\L	.	.	.	.
.	12ddd/	12aa\	.	.	.	.
.	12ddd/J	12bb\J	.	.	.	.
4d 4A 4F# 4D\	12ddd/L	12ccc\L	.	.	.	.
.	12eee/	12ccc\	.	.	.	.
.	12fff#/J	12ccc\J	.	.	.	.
*	*v	*v	*	*	*	*
=8	=8	=8	=8	=8	=8
4G 4GG/	4ggg 4bb\	.	2.r	.	.
2G 2D 2GG\	2g 2B/	.	.	.	.
=9!|:	=9!|:	=9!|:	=9!|:	=9!|:	=9!|:
*>B	*>B	*>B	*>B	*>B	*>B
2G 2GG\	4ryy	.	4.b\	Przy-	Po-
.	4g 4d 4B/	.	.	.	.
.	.	.	8qcc/	.	.
.	.	.	8b/	-by-	-znać
4ryy	4g 4d 4B/	.	8a/	-łeś	lu-
.	.	.	8g/	tu	-dzi,
=10	=10	=10	=10	=10	=10
2.G 2.GG\	4r	.	8.b\	z ob-	po-
.	.	.	16ee\	-cych	-znać
.	4g 4e 4A#X/	.	4cc#X\	kra-	ser-
.	4g 4d 4B/	.	4dd\	-jów,	-ca,
=11	=11	=11	=11	=11	=11
2.D 2.DD/	4r	.	8.dd\	wi-	Kraj
.	.	.	16a/	-taj	po-
.	4f# 4d 4c/	.	4a/	mi	-ró-
.	4f# 4d 4A/	.	(8a/L	Bo-	-wnać
.	.	.	8cc/J)	.	.
!!LO:LB:g=original
=12	=12	=12	=12	=12	=12
*	*8va	*	*	*	*
*	*^	*	*	*	*
4GG/	12ddd/L	12bb\L	pp	4b/	-cian-	z kra-
.	12eee/	12bb\	.	.	.	.
.	12fff#/J	12bb\J	.	.	.	.
4B 4G 4D\	12ggg/L	12bb\L	.	4g/	-ku!	-jem,
.	12fff#/	12bb\	.	.	.	.
.	12eee/J	12bb\J	.	.	.	.
4d 4F# 4D\	12ddd/L	12bb\L	.	4r	.	.
.	12ccc#X/	12aa#X\	.	.	.	.
.	12cccn/J	12aan\J	.	.	.	.
*	*v	*v	*	*	*	*
=13	=13	=13	=13	=13	=13
2.G 2.GG/	4bb 4gg/	.	4.b/	My	My
*	*X8va	*	*	*	*
.	4g 4d 4B/	.	.	.	.
.	.	.	8qcc/	.	.
.	.	.	8b/	ci	po-
.	4g 4d 4B/	.	8a/	gniaz-	-do-
.	.	.	8g/	-do	-bno
=14	=14	=14	=14	=14	=14
2.G 2.GG/	4r	.	8.b\	zbu-	ci
.	.	.	16ee\	-do-	naj-
.	4g 4e 4A#X/	.	4cc#X\	-wa-	-mil-
.	4g 4d 4B/	.	4dd\	-li,	-si
=15	=15	=15	=15	=15	=15
2.D 2.DD/	4r	.	8.dd\	O-	Sta-
.	.	.	16a/	-siądź	-rym
.	4f# 4d 4c/	.	4a/	tu	o-
.	4f# 4d 4A/	.	8a/L	ko-	-by-
.	.	.	8cc/J	.	.
=16	=16	=16	=16	=16	=16
*	*8va	*	*	*	*
!	!	!LO:DY:t=%s leggieriss&colon;	!	!	!
4GG/	12ddddL 12bbb\	pp	4b/	-chan-	-cza-
.	12cccc 12aaa\	.	.	.	.
.	12bbbJ 12ggg\	.	.	.	.
*clefG2	*	*	*	*	*
4g 4d 4B/	12aaaL 12fff#\	.	4g/	-ku,	-jem.
.	12ggg 12eee\	.	.	.	.
.	12fff#J 12ddd\	.	.	.	.
4r	12eeeL 12ccc\	.	4ryy	.	.
.	12ddd 12bb\	.	.	.	.
.	12cccJ 12aa\	.	.	.	.
*clefF4	*	*	*	*	*
=17	=17	=17	=17	=17	=17
4E 4EE/	4bb 4gg\	.	8.g/	Przy-	Któż
*	*X8va	*	*	*	*
.	.	.	16g/	-znaj	ci
4D#X 4DD#X/	4a 4f# 4B/	.	4f#/	czy	ko-
4BB 4BBB/	4a 4d#X 4B/	.	4g/	ci	-ło
!!LO:PB:g=original
=18	=18	=18	=18	=18	=18
.	.	.	8qa/	.	.
2.E 2.EE/	4r	.	8.g/	za-	w gó-
.	.	.	16f#/	-gra-	-rę
.	4g 4e 4B/	.	4g/	-ni-	dźwi-
.	4g 4e 4B/	.	4e/	-cą	-gał,
=19	=19	=19	=19	=19	=19
2.E 2.EE/	4r	.	8b\	jak	pa-
.	.	.	8ee\	my	-mię-
.	4g#X 4e 4d 4B/	.	4b\	by-	-tał
.	4g# 4e 4d 4B/	.	4dd\	-li	o
=20	=20	=20	=20	=20	=20
2.E 2.AA/	4r	.	(8cc\L	ra-	to-
.	.	.	8b\J)	.	.
.	4a 4e 4c/	.	4a/	-dzi;	-bie;
.	4a 4e 4c/	.	4r	.	.
=21	=21	=21	=21	=21	=21
4F# 4FF#/	4r	.	8.d/	w ob-	O!
.	.	.	16cc\	-ce	Bo-
2D 2DD/	4f# 4d 4A/	.	(4cc\	kra-	-cian-
.	4f# 4d 4c/	.	8b\)	.	.
.	.	.	8a\	-je	-ku
=22	=22	=22	=22	=22	=22
2.D 2.GG/	4r	.	8.g/	się	u-
.	.	.	16a/	prze-	-ko-
.	4g 4d 4B/	.	4b/	-le-	-cha-
.	4g 4d 4B/	.	4b/	-ciéć	-ny!
=23	=23	=23	=23	=23	=23
4F# 4FF#/	4r	.	8.d/	cza-	siedź
.	.	.	16cc\	-sem	tu
2D 2DD/	4f# 4d 4A/	.	(4cc\	nie	z na-
.	4f# 4d 4c/	.	8b\)	.	.
.	.	.	8a\	za-	-mi
!!LO:LB:g=original
=24	=24	=24	=24	=24	=24
2.D 2.GG/	4r	.	4b/	-wa-	so-
.	4g 4d 4B/	.	4g/	-dzi.	-bie.
.	4g 4d 4B/	.	4r	.	.
=25	=25	=25	=25	=25	=25
4DD/	8.d\L	.	2.r	.	.
.	16eeJk 16cc\	.	.	.	.
.	(16qqee/LL	.	.	.	.
.	16qqff#/JJ)	.	.	.	.
4A 4F# 4D\	4ee 4cc\	.	.	.	.
4c 4F# 4D\	8ddL 8b\	.	.	.	.
.	8ccJ 8a\	.	.	.	.
=26	=26	=26	=26	=26	=26
4G 4GG/	8.bL 8.g\	.	2.r	.	.
.	16bbJk 16dd\	.	.	.	.
4B 4G 4D\	4.gg 4.b\	.	.	.	.
4B 4G 4D\	.	.	.	.	.
.	8ee 8cc\	.	.	.	.
=27	=27	=27	=27	=27	=27
4D 4DD/	8.ddL 8.b\	.	2.r	.	.
.	16ccJk 16a\	.	.	.	.
4c 4F# 4D\	4a 4f#\	.	.	.	.
4D\	4dd 4f# 4d\	.	.	.	.
=28	=28	=28	=28	=28	=28
4D 4GG/	4b 4B/	.	2.r	.	.
2D 2GG/	2g 2B/	.	.	.	.
=29:|!	=29:|!	=29:|!	=29:|!	=29:|!	=29:|!
*>C	*>C	*>C	*>C	*>C	*>C
2.G 2.GG/	4r	.	4.b/	Kraj	.
.	4g 4d 4B/	.	.	.	.
.	.	.	(8qcc/	.	.
.	.	.	8b/)	pocz-	.
.	4g 4d 4B/	.	8a/	-ci-	.
.	.	.	8g/	-wy	.
!!LO:LB:g=original
=30	=30	=30	=30	=30	=30
2.G 2.GG/	4r	.	8.b\	choć	.
.	.	.	16ee\	u-	.
.	4g 4e 4A#X/	.	4cc#X\	-bo-	.
.	4g 4d 4B/	.	4dd\	-gi,	.
=31	=31	=31	=31	=31	=31
2.D 2.DD/	4r	.	8.dd\	Lu-	.
.	.	.	16a/	-dzie	.
.	4f# 4d 4c/	.	4a/	jak	.
.	4f# 4d 4B/	.	(8a/L	a-	.
.	.	.	8cc/J)	.	.
=32	=32	=32	=32	=32	=32
*	*tuplet	*	*	*	*
*	*8va	*	*	*	*
4GG/	12dddL 12bb\	.	4b/	-nie-	.
.	12eee 12bb\	.	.	.	.
.	12fff#J 12bb\	.	.	.	.
4B 4G 4D\	12gggL 12bb\	.	4g/	-li	.
.	12fff# 12bb\	.	.	.	.
.	12eeeJ 12bb\	.	.	.	.
4d 4F# 4D\	12dddL 12bb\	.	4r	.	.
.	12ccc#X 12aa#X\	.	.	.	.
.	12cccnJ 12aan\	.	.	.	.
=33	=33	=33	=33	=33	=33
2.G 2.GG/	4bb 4gg/	.	4.b/	pe-	.
*	*X8va	*	*	*	*
.	4g 4d 4B/	.	.	.	.
.	.	.	(8qcc/	.	.
.	.	.	8b/)	-wno-	.
.	4g 4d 4B/	.	8a/	-ście	.
.	.	.	8g/	serc	.
=34	=34	=34	=34	=34	=34
2.G 2.GG/	4r	.	8.b\	ta-	.
.	.	.	16ee\	-kich	.
.	4g 4e 4A#X/	.	4cc#X\	za-	.
.	4g 4d 4B/	.	4dd\	-cnych	.
!!LO:LB:g=original
=35	=35	=35	=35	=35	=35
2.D 2.DD/	4r	.	8.dd\	ni-	.
.	.	.	16a/	-gdzie	.
.	4f# 4d 4c/	.	4a/	nie-	.
.	4f# 4d 4A/	.	(8a/L	-wi-	.
.	.	.	8cc/J)	.	.
=36	=36	=36	=36	=36	=36
2.D 2.GG/	4r	.	4b/	-dzie-	.
.	4g 4d 4B/	.	4g/	-li.	.
.	4g 4d 4B/	.	4r	.	.
=37	=37	=37	=37	=37	=37
*	*^	*	*	*	*
*	*Xtuplet	*tuplet	*	*	*	*
4DD/	12ddd/L	12dd\L	.	2.r	.	.
.	12ddd/	12ee\	.	.	.	.
.	12ddd/J	12ff#\J	.	.	.	.
4A 4F# 4D\	12ddd/L	12gg\L	.	.	.	.
.	12ddd/	12aa\	.	.	.	.
.	12ddd/J	12bb\J	.	.	.	.
4d 4A 4F# 4D\	4ddd/	4ccc\	.	.	.	.
=38	=38	=38	=38	=38	=38	=38
*	*Xtuplet	*tuplet	*	*	*	*
4GG/	12ddd/L	12bb\L	.	2.r	.	.
.	12ddd/	12aa\	.	.	.	.
.	12ddd/J	12gg\J	.	.	.	.
4B 4G 4D\	12ddd/L	12ff#\L	.	.	.	.
.	12ddd/	12gg\	.	.	.	.
.	12ddd/J	12ee\J	.	.	.	.
4B 4G 4D\	4ddd/	4dd\	.	.	.	.
=39	=39	=39	=39	=39	=39	=39
*	*Xtuplet	*tuplet	*	*	*	*
4DD/	12ddd/L	12dd\L	p	2.r	.	.
.	12ddd/	12ee\	.	.	.	.
.	12ddd/J	12ff#\J	.	.	.	.
4A 4F# 4D\	12ddd/L	12gg\L	.	.	.	.
.	12ddd/	12aa\	.	.	.	.
.	12ddd/J	12bb\J	.	.	.	.
4d 4A 4F# 4D\	12ddd/L	12ccc\L	.	.	.	.
.	12eee/	12ccc\	.	.	.	.
.	12fff#/J	12ccc\J	.	.	.	.
*	*v	*v	*	*	*	*
=40	=40	=40	=40	=40	=40
4G 4GG\	4ggg 4bb\	.	2.r	.	.
2G 2D 2GG\	2g 2B/	.	.	.	.
==	==	==	==	==	==
*-	*-	*-	*-	*-	*-
!!!system-decoration: s1{(s2,s3)}
!!!RDF**kern: > = above
!!!RDF**kern: < = below
!!!RDF**kern: N = linked
!!!ENC: Andrzej Gręziak
!!!EED: Katarzyna Serwa
!!!END: 2025-03-24
!!!EEV: 2025-03-27
